svgs/duotone/circle-z.svg

<svg xmlns="http://www.w3.org/2000/svg" viewBox="0 0 512 512"><!--! Font Awesome Pro 6.3.0 by @fontawesome - https://fontawesome.com License - https://fontawesome.com/license (Commercial License) Copyright 2023 Fonticons, Inc. --><defs><style>.fa-secondary{opacity:.4}</style></defs><path class="fa-primary" d="M328 336H229.8l117.9-170.3c5.094-7.328 5.688-16.89 1.531-24.8C345.1 132.1 336.9 128 328 128h-144C170.8 128 160 138.8 160 152S170.8 176 184 176h98.19l-117.9 170.3c-5.094 7.328-5.688 16.89-1.531 24.8C166.9 379 175.1 384 184 384h144c13.25 0 24-10.75 24-24S341.3 336 328 336z"/><path class="fa-secondary" d="M256 0C114.6 0 0 114.6 0 256s114.6 256 256 256s256-114.6 256-256S397.4 0 256 0zM328 384h-144c-8.938 0-17.12-4.953-21.25-12.86c-4.156-7.906-3.562-17.47 1.531-24.8L282.2 176H184C170.8 176 160 165.3 160 152S170.8 128 184 128h144c8.938 0 17.12 4.953 21.25 12.86c4.156 7.906 3.562 17.47-1.531 24.8L229.8 336H328c13.25 0 24 10.75 24 24S341.3 384 328 384z"/></svg>

<svg xmlns="http://www.w3.org/2000/svg" viewBox="0 0 512 512"><!-- Font Awesome Pro 6.0.0-alpha2 by @fontawesome - https://fontawesome.com License - https://fontawesome.com/license (Commercial License) --><defs><style>.fa-secondary{opacity:.4}</style></defs><path d="M256 16C123.451 16 16 123.451 16 256S123.451 496 256 496S496 388.549 496 256S388.549 16 256 16ZM328 384H184C175.062 384 166.875 379.047 162.75 371.141C158.594 363.234 159.188 353.672 164.281 346.344L282.188 176H184C170.75 176 160 165.25 160 152S170.75 128 184 128H328C336.938 128 345.125 132.953 349.25 140.859C353.406 148.766 352.812 158.328 347.719 165.656L229.812 336H328C341.25 336 352 346.75 352 360S341.25 384 328 384Z" class="fa-secondary"/><path d="M328 336H229.812L347.719 165.656C352.812 158.328 353.406 148.766 349.25 140.859C345.125 132.953 336.938 128 328 128H184C170.75 128 160 138.75 160 152S170.75 176 184 176H282.188L164.281 346.344C159.188 353.672 158.594 363.234 162.75 371.141C166.875 379.047 175.062 384 184 384H328C341.25 384 352 373.25 352 360S341.25 336 328 336Z" class="fa-primary"/></svg>
